X:0894
T:Miss Williamson's Reel.
N:from John Macglashan, 1798
M:C
L:1/8
Q:1/2=112
I: :: ||
Z:Jack Campin * www.campin.me.uk * 2009
K:G
c|BGdG FGAc|BGdB A/A/A Ac|BGdG FGAc|(B/c/d) cA G2G:|
c|Bddc Bgge|dgdB A/A/A AG|Bddc Bdgb| agfe      d2dc|
  Bdgb egce|dgBG A/A/A AB|GDEG DGBG| EcBA      G2G|]

